src/assets/images/informacion/cartBlanco.svg

<?xml version="1.0" encoding="UTF-8"?>
<svg width="43px" height="46px" viewBox="0 0 43 46" version="1.1" xmlns="http://www.w3.org/2000/svg" xmlns:xlink="http://www.w3.org/1999/xlink">
    <!-- Generator: Sketch 52.4 (67378) - http://www.bohemiancoding.com/sketch -->
    <title>Shape</title>
    <desc>Created with Sketch.</desc>
    <g id="Page-1" stroke="none" stroke-width="1" fill="none" fill-rule="evenodd">
        <path d="M21.3293651,17.5238095 L25.5952381,17.5238095 L25.5952381,10.952381 L31.9940476,10.952381 L31.9940476,6.57142857 L25.5952381,6.57142857 L25.5952381,0 L21.3293651,0 L21.3293651,6.57142857 L14.9305556,6.57142857 L14.9305556,10.952381 L21.3293651,10.952381 L21.3293651,17.5238095 Z M12.797619,37.2380952 C10.4513889,37.2380952 8.5530754,39.2095238 8.5530754,41.6190476 C8.5530754,44.0285714 10.4513889,46 12.797619,46 C15.1438492,46 17.0634921,44.0285714 17.0634921,41.6190476 C17.0634921,39.2095238 15.1438492,37.2380952 12.797619,37.2380952 Z M34.1269841,37.2380952 C31.780754,37.2380952 29.8824405,39.2095238 29.8824405,41.6190476 C29.8824405,44.0285714 31.780754,46 34.1269841,46 C36.4732143,46 38.3928571,44.0285714 38.3928571,41.6190476 C38.3928571,39.2095238 36.4732143,37.2380952 34.1269841,37.2380952 Z M13.1602183,30.1190476 L13.2242063,29.8561905 L15.1438492,26.2857143 L31.0342262,26.2857143 C32.6339286,26.2857143 34.0416667,25.387619 34.7668651,24.0295238 L43,8.67428571 L39.2886905,6.57142857 L39.2673611,6.57142857 L36.921131,10.952381 L31.0342262,21.9047619 L16.0610119,21.9047619 L15.7837302,21.3133333 L11.0059524,10.952381 L8.9796627,6.57142857 L6.97470238,2.19047619 L0,2.19047619 L0,6.57142857 L4.26587302,6.57142857 L11.9444444,23.1971429 L9.06498016,28.5638095 C8.72371032,29.1771429 8.53174603,29.9 8.53174603,30.6666667 C8.53174603,33.0761905 10.4513889,35.047619 12.797619,35.047619 L38.3928571,35.047619 L38.3928571,30.6666667 L13.6934524,30.6666667 C13.4161706,30.6666667 13.1602183,30.4257143 13.1602183,30.1190476 Z" id="Shape" fill="#FFFFFF" fill-rule="nonzero"></path>
    </g>
</svg>

<svg xmlns="http://www.w3.org/2000/svg" width="43" height="46"><title>Shape</title><desc>Created with Sketch.</desc><g fill="none"><path fill="#fff" fill-rule="nonzero" d="M21.33 17.52h4.27v-6.57H32V6.57h-6.4V0h-4.27v6.57h-6.4v4.38h6.4v6.57zM12.8 37.24c-2.35 0-4.25 1.97-4.25 4.38 0 2.4 1.9 4.38 4.25 4.38 2.34 0 4.26-1.97 4.26-4.38 0-2.4-1.92-4.38-4.26-4.38zm21.33 0c-2.35 0-4.25 1.97-4.25 4.38 0 2.4 1.9 4.38 4.25 4.38 2.34 0 4.26-1.97 4.26-4.38 0-2.4-1.93-4.38-4.27-4.38zm-20.97-7.12l.06-.26 1.92-3.57h15.9c1.6 0 3-.9 3.73-2.27L43 8.67l-3.7-2.1h-.03l-2.35 4.38-5.9 10.95H16.07l-.28-.6L11 10.96 9 6.57l-2-4.38H0v4.37h4.27l7.67 16.63-2.88 5.36c-.34.62-.53 1.34-.53 2.1 0 2.42 1.92 4.4 4.27 4.4h25.6v-4.4H13.7c-.28 0-.54-.23-.54-.54z"/></g></svg>
